X: 1
T: Juniper Island
M: 4/4
L: 1/8
R: reel
K: Gmaj
D2 |:G2 DG B3 d|gb fg eg dB|c2 AB ef fg|ag fe dc BA|
G2 DG B3 d|gb fg eg dB|ca Bg Af dc|1BG AF G2 D2:|2BG AF G2 A2||
|:B2 GB c2 Bd|gf ed cB AG|c2 Bc f2 fg|ag fe dc BA|
B2 GB c2 Bc|d2 ^cd gf ed|ca Bg Af dc|1BG AF G2 A2:|2BG AF G2 D2||
